icon-themes/sifr_svg/cmd/lc_datasubtotals.svg

<svg viewBox="0 0 24 24" xmlns="http://www.w3.org/2000/svg"><path d="m4 2v2 3h2v-3h4v-2zm8 0v20h10v-20zm2 3h2v2h-2zm4 0h2v2h-2zm-14 4v2h-2v2h2v2h2v-2h2v-2h-2v-2zm10 0h2v2h-2zm4 0h2v2h-2zm-4 4h2v2h-2zm4 0h2v2h-2zm-14 4v3 2h6v-2h-4v-3zm10 0h2v2h-2zm4 0h2v2h-2z" fill="#555753"/></svg>

<svg xmlns="http://www.w3.org/2000/svg" viewBox="0 0 24 24">
  <path
     style="fill:#555753"
     d="M 4 2 L 4 4 L 4 7 L 6 7 L 6 4 L 10 4 L 10 2 L 4 2 z M 12 2 L 12 22 L 22 22 L 22 2 L 12 2 z M 14 5 L 16 5 L 16 7 L 14 7 L 14 5 z M 18 5 L 20 5 L 20 7 L 18 7 L 18 5 z M 4 9 L 4 11 L 2 11 L 2 13 L 4 13 L 4 15 L 6 15 L 6 13 L 8 13 L 8 11 L 6 11 L 6 9 L 4 9 z M 14 9 L 16 9 L 16 11 L 14 11 L 14 9 z M 18 9 L 20 9 L 20 11 L 18 11 L 18 9 z M 14 13 L 16 13 L 16 15 L 14 15 L 14 13 z M 18 13 L 20 13 L 20 15 L 18 15 L 18 13 z M 4 17 L 4 20 L 4 22 L 10 22 L 10 20 L 6 20 L 6 17 L 4 17 z M 14 17 L 16 17 L 16 19 L 14 19 L 14 17 z M 18 17 L 20 17 L 20 19 L 18 19 L 18 17 z "
     />
</svg>
